!!!SOCIAL_FUNCTION:	songs connected with legends of manabus
!!!PDT:	1932
!!!OTL: No_79_Manabus_and_the_Stone_(a).krn
!!!REG: Wisconsin
!!!LANG: Non-Tone
!!!LING_GROUP: Algonquin
**kern
*staff1
=1-
*clefF4
*k[f#c#g#d#]
*M2/4
4r
8r
8G#\
=2
4F#\
8.F#\L
16F#\Jk
=3
4G#\
8.G#\L
16F#\Jk
=4
4E\
8E\
16r
16F#\
=5!|:
4E\
8.E\L
16E\Jk
=6
4E\
8.E/L
16C#/Jk
=7
4BB/
16BB/
16r
8F#\
=8
4E\
8.E\L
16E\Jk
=9
4F#\
8.F#\L
16E\Jk
=10
4E\
16E\
16r
8F#\
=11
4E\
8.E\L
16E\Jk
=12
4E\
8.E/L
16C#/Jk
=13
4BB/
16BB/
16r
8C#/
=14
4BB/
8.BB/L
16C#/Jk
=15
4BB/
8.BB/L
16GG#/Jk
=16
4EE/
8EE/
8r
=17
4r
8r
8G#\
=18
4F#\
8.F#\L
16Gn\Jk
=19
4G#\
4G#\
=20
4F#\
8.F#\L
16E\Jk
=21
4E\
8E\
16r
16F#\
==:|!
*-
